weblate/static/auth/google.svg

<svg xmlns="http://www.w3.org/2000/svg" xmlns:svg="http://www.w3.org/2000/svg" xmlns:xlink="http://www.w3.org/1999/xlink" id="svg52" width="18" height="18" version="1.1" viewBox="0 0 18 18"><metadata id="metadata56"/><title id="title2">btn_google_light_normal_ios</title><desc id="desc4">Created with Sketch.</desc><defs id="defs28"><filter id="filter-1" width="2" height="2" x="-.5" y="-.5" filterUnits="objectBoundingBox"><feOffset id="feOffset6" dx="0" dy="1" in="SourceAlpha" result="shadowOffsetOuter1"/><feGaussianBlur id="feGaussianBlur8" in="shadowOffsetOuter1" result="shadowBlurOuter1" stdDeviation=".5"/><feColorMatrix id="feColorMatrix10" in="shadowBlurOuter1" result="shadowMatrixOuter1" type="matrix" values="0 0 0 0 0 0 0 0 0 0 0 0 0 0 0 0 0 0 0.168 0"/><feOffset id="feOffset12" dx="0" dy="0" in="SourceAlpha" result="shadowOffsetOuter2"/><feGaussianBlur id="feGaussianBlur14" in="shadowOffsetOuter2" result="shadowBlurOuter2" stdDeviation=".5"/><feColorMatrix id="feColorMatrix16" in="shadowBlurOuter2" result="shadowMatrixOuter2" type="matrix" values="0 0 0 0 0 0 0 0 0 0 0 0 0 0 0 0 0 0 0.084 0"/><feMerge id="feMerge24"><feMergeNode id="feMergeNode18" in="shadowMatrixOuter1"/><feMergeNode id="feMergeNode20" in="shadowMatrixOuter2"/><feMergeNode id="feMergeNode22" in="SourceGraphic"/></feMerge></filter><rect id="path-2" width="40" height="40" x="0" y="0" rx="2"/></defs><use id="use32" width="100%" height="100%" x="0" y="0" fill="none" fill-rule="evenodd" stroke="none" stroke-width="1" filter="url(#filter-1)" transform="translate(-11,-11)" xlink:href="#path-2"/><use id="use34" width="100%" height="100%" x="0" y="0" fill="none" fill-rule="evenodd" stroke="none" stroke-width="1" filter="url(#filter-1)" transform="translate(-11,-11)" xlink:href="#path-2"/><use id="use36" width="100%" height="100%" x="0" y="0" fill="none" fill-rule="evenodd" stroke="none" stroke-width="1" filter="url(#filter-1)" transform="translate(-11,-11)" xlink:href="#path-2"/><g id="g909" transform="translate(-13.82,-14)"><path id="Shape" fill="#4285f4" fill-rule="evenodd" stroke="none" stroke-width="1" d="m 31.64,23.204546 c 0,-0.638182 -0.05727,-1.251819 -0.163636,-1.84091 H 23 V 24.845 h 4.843636 C 27.635,25.97 27.000909,26.923182 26.047727,27.561364 v 2.258182 h 2.908637 C 30.658182,28.252727 31.64,25.945455 31.64,23.204546 Z"/><path id="path41" fill="#34a853" fill-rule="evenodd" stroke="none" stroke-width="1" d="m 23,32 c 2.43,0 4.467273,-0.805909 5.956364,-2.180454 l -2.908637,-2.258182 c -0.805909,0.54 -1.836818,0.859091 -3.047727,0.859091 -2.344091,0 -4.328182,-1.583182 -5.035909,-3.710455 h -3.006818 v 2.331818 C 16.438182,29.983182 19.481818,32 23,32 Z"/><path id="path43" fill="#fbbc05" fill-rule="evenodd" stroke="none" stroke-width="1" d="m 17.964091,24.71 c -0.18,-0.54 -0.282273,-1.116818 -0.282273,-1.71 0,-0.593182 0.102273,-1.17 0.282273,-1.71 V 18.958182 H 14.957273 C 14.347727,20.173182 14,21.547727 14,23 c 0,1.452273 0.347727,2.826818 0.957273,4.041818 z"/><path id="path45" fill="#ea4335" fill-rule="evenodd" stroke="none" stroke-width="1" d="m 23,17.579546 c 1.321364,0 2.507727,0.45409 3.440455,1.345909 l 2.581363,-2.581364 C 27.463182,14.891818 25.425909,14 23,14 c -3.518182,0 -6.561818,2.016818 -8.042727,4.958182 L 17.964091,21.29 C 18.671818,19.162727 20.655909,17.579546 23,17.579546 Z"/></g><path id="path47" fill="none" fill-rule="evenodd" stroke="none" stroke-width="1" d="M 0,0 H 18 V 18 H 0 Z"/></svg>

<svg width="18" height="18" version="1.1" viewBox="0 0 18 18" xmlns="http://www.w3.org/2000/svg" xmlns:xlink="http://www.w3.org/1999/xlink"><defs><filter id="filter-1" x="-.5" y="-.5" width="2" height="2"><feOffset dx="0" dy="1" in="SourceAlpha" result="shadowOffsetOuter1"/><feGaussianBlur in="shadowOffsetOuter1" result="shadowBlurOuter1" stdDeviation=".5"/><feColorMatrix in="shadowBlurOuter1" result="shadowMatrixOuter1" values="0 0 0 0 0 0 0 0 0 0 0 0 0 0 0 0 0 0 0.168 0"/><feOffset dx="0" dy="0" in="SourceAlpha" result="shadowOffsetOuter2"/><feGaussianBlur in="shadowOffsetOuter2" result="shadowBlurOuter2" stdDeviation=".5"/><feColorMatrix in="shadowBlurOuter2" result="shadowMatrixOuter2" values="0 0 0 0 0 0 0 0 0 0 0 0 0 0 0 0 0 0 0.084 0"/><feMerge><feMergeNode in="shadowMatrixOuter1"/><feMergeNode in="shadowMatrixOuter2"/><feMergeNode in="SourceGraphic"/></feMerge></filter><rect id="path-2" width="40" height="40" rx="2"/></defs><use transform="translate(-11,-11)" width="100%" height="100%" fill="none" fill-rule="evenodd" filter="url(#filter-1)" xlink:href="#path-2"/><use transform="translate(-11,-11)" width="100%" height="100%" fill="none" fill-rule="evenodd" filter="url(#filter-1)" xlink:href="#path-2"/><use transform="translate(-11,-11)" width="100%" height="100%" fill="none" fill-rule="evenodd" filter="url(#filter-1)" xlink:href="#path-2"/><g transform="translate(-13.82,-14)" fill-rule="evenodd"><path d="m31.64 23.205c0-0.63818-0.05727-1.2518-0.16364-1.8409h-8.4764v3.4814h4.8436c-0.20864 1.125-0.84273 2.0782-1.7959 2.7164v2.2582h2.9086c1.7018-1.5668 2.6836-3.8741 2.6836-6.615z" fill="#4285f4"/><path d="m23 32c2.43 0 4.4673-0.80591 5.9564-2.1805l-2.9086-2.2582c-0.80591 0.54-1.8368 0.85909-3.0477 0.85909-2.3441 0-4.3282-1.5832-5.0359-3.7105h-3.0068v2.3318c1.4809 2.9414 4.5245 4.9582 8.0427 4.9582z" fill="#34a853"/><path d="m17.964 24.71c-0.18-0.54-0.28227-1.1168-0.28227-1.71s0.10227-1.17 0.28227-1.71v-2.3318h-3.0068c-0.60955 1.215-0.95727 2.5895-0.95727 4.0418s0.34773 2.8268 0.95727 4.0418z" fill="#fbbc05"/><path d="m23 17.58c1.3214 0 2.5077 0.45409 3.4405 1.3459l2.5814-2.5814c-1.5586-1.4523-3.5959-2.3441-6.0218-2.3441-3.5182 0-6.5618 2.0168-8.0427 4.9582l3.0068 2.3318c0.70773-2.1273 2.6918-3.7105 5.0359-3.7105z" fill="#ea4335"/></g><path d="m0 0h18v18h-18z" fill="none" fill-rule="evenodd"/></svg>
